src/styles/icons/size(28*28)(30*30)/share_28dp.svg

<svg width="28" height="28" fill="current" xmlns="http://www.w3.org/2000/svg"><path d="m15.8764 20.2755-4.8621-2.6331c-.6348.6739-1.45903 1.1426-2.36559 1.3452-.90655.2026-1.85352.1297-2.71784-.2091-.86431-.3389-1.606-.928-2.12869-1.6909C3.2795 16.3247 3 15.4233 3 14.5006c0-.9227.2795-1.8241.80218-2.587.52269-.7629 1.26438-1.3521 2.12869-1.6909.86432-.33887 1.81129-.41172 2.71784-.2091.90656.2026 1.73079.6713 2.36559 1.3451l4.8633-2.63304c-.2761-1.08533-.1441-2.2334.3713-3.229.5153-.9956 1.3787-1.77038 2.4282-2.17912 1.0495-.40873 2.2131-.42335 3.2727-.04112s1.9424 1.13507 2.483 2.1174c.5405.98233.7018 2.12672.4534 3.21864-.2484 1.09192-.8892 2.05644-1.8025 2.71274-.9133.6562-2.0363.9592-3.1584.8522-1.1222-.1071-2.1665-.6169-2.9372-1.4338l-4.8634 2.633c.1867.7375.1867 1.5093 0 2.2468l4.8622 2.633c.7707-.8169 1.815-1.3267 2.9372-1.4338 1.1222-.107 2.2451.196 3.1584.8522.9133.6563 1.5542 1.6208 1.8025 2.7127.2484 1.092.0872 2.2363-.4534 3.2187-.5406.9823-1.4234 1.7352-2.483 2.1174-1.0596.3822-2.2232.3676-3.2727-.0411-1.0495-.4088-1.9128-1.1836-2.4282-2.1792-.5154-.9956-.6474-2.1436-.3713-3.229v.0012Zm-8.24443-3.4759c.6142 0 1.20325-.2423 1.63756-.6735.43431-.4313.6783-1.0162.6783-1.6261 0-.6099-.24399-1.1948-.6783-1.6261-.43431-.4312-1.02336-.6735-1.63756-.6735-.61421 0-1.20326.2423-1.63757.6735-.43431.4313-.6783 1.0162-.6783 1.6261 0 .6099.24399 1.1948.6783 1.6261.43431.4312 1.02336.6735 1.63757.6735ZM20.3692 9.90077c.6142 0 1.2033-.24228 1.6376-.67354.4343-.43127.6783-1.01618.6783-1.62608 0-.6099-.244-1.19481-.6783-1.62607-.4343-.43127-1.0234-.67355-1.6376-.67355-.6142 0-1.2032.24228-1.6375.67355-.4344.43126-.6783 1.01617-.6783 1.62607 0 .6099.2439 1.19481.6783 1.62608.4343.43126 1.0233.67354 1.6375.67354Zm0 13.79773c.6142 0 1.2033-.2423 1.6376-.6736.4343-.4312.6783-1.0162.6783-1.6261 0-.6098-.244-1.1948-.6783-1.626-.4343-.4313-1.0234-.6736-1.6376-.6736-.6142 0-1.2032.2423-1.6375.6736-.4344.4312-.6783 1.0162-.6783 1.626 0 .6099.2439 1.1949.6783 1.6261.4343.4313 1.0233.6736 1.6375.6736Z"/></svg>

<svg width="28" height="28" viewBox="0 0 28 28" fill="current" xmlns="http://www.w3.org/2000/svg">
<path d="M15.8764 20.2755L11.0143 17.6424C10.3795 18.3163 9.55527 18.785 8.64871 18.9876C7.74216 19.1902 6.79519 19.1173 5.93087 18.7785C5.06656 18.4396 4.32487 17.8505 3.80218 17.0876C3.2795 16.3247 3 15.4233 3 14.5006C3 13.5779 3.2795 12.6765 3.80218 11.9136C4.32487 11.1507 5.06656 10.5615 5.93087 10.2227C6.79519 9.88383 7.74216 9.81098 8.64871 10.0136C9.55527 10.2162 10.3795 10.6849 11.0143 11.3587L15.8776 8.72566C15.6015 7.64033 15.7335 6.49226 16.2489 5.49666C16.7642 4.50106 17.6276 3.72628 18.6771 3.31754C19.7266 2.90881 20.8902 2.89419 21.9498 3.27642C23.0094 3.65865 23.8922 4.41149 24.4328 5.39382C24.9733 6.37615 25.1346 7.52054 24.8862 8.61246C24.6378 9.70438 23.997 10.6689 23.0837 11.3252C22.1704 11.9814 21.0474 12.2844 19.9253 12.1774C18.8031 12.0703 17.7588 11.5605 16.9881 10.7436L12.1247 13.3766C12.3114 14.1141 12.3114 14.8859 12.1247 15.6234L16.9869 18.2564C17.7576 17.4395 18.8019 16.9297 19.9241 16.8226C21.0463 16.7156 22.1692 17.0186 23.0825 17.6748C23.9958 18.3311 24.6367 19.2956 24.885 20.3875C25.1334 21.4795 24.9722 22.6238 24.4316 23.6062C23.891 24.5885 23.0082 25.3414 21.9486 25.7236C20.889 26.1058 19.7254 26.0912 18.6759 25.6825C17.6264 25.2737 16.7631 24.4989 16.2477 23.5033C15.7323 22.5077 15.6003 21.3597 15.8764 20.2743V20.2755ZM7.63197 16.7996C8.24617 16.7996 8.83522 16.5573 9.26953 16.1261C9.70384 15.6948 9.94783 15.1099 9.94783 14.5C9.94783 13.8901 9.70384 13.3052 9.26953 12.8739C8.83522 12.4427 8.24617 12.2004 7.63197 12.2004C7.01776 12.2004 6.42871 12.4427 5.9944 12.8739C5.56009 13.3052 5.3161 13.8901 5.3161 14.5C5.3161 15.1099 5.56009 15.6948 5.9944 16.1261C6.42871 16.5573 7.01776 16.7996 7.63197 16.7996ZM20.3692 9.90077C20.9834 9.90077 21.5725 9.65849 22.0068 9.22723C22.4411 8.79596 22.6851 8.21105 22.6851 7.60115C22.6851 6.99125 22.4411 6.40634 22.0068 5.97508C21.5725 5.54381 20.9834 5.30153 20.3692 5.30153C19.755 5.30153 19.166 5.54381 18.7317 5.97508C18.2973 6.40634 18.0534 6.99125 18.0534 7.60115C18.0534 8.21105 18.2973 8.79596 18.7317 9.22723C19.166 9.65849 19.755 9.90077 20.3692 9.90077ZM20.3692 23.6985C20.9834 23.6985 21.5725 23.4562 22.0068 23.0249C22.4411 22.5937 22.6851 22.0087 22.6851 21.3988C22.6851 20.789 22.4411 20.204 22.0068 19.7728C21.5725 19.3415 20.9834 19.0992 20.3692 19.0992C19.755 19.0992 19.166 19.3415 18.7317 19.7728C18.2973 20.204 18.0534 20.789 18.0534 21.3988C18.0534 22.0087 18.2973 22.5937 18.7317 23.0249C19.166 23.4562 19.755 23.6985 20.3692 23.6985Z" fill="current"/>
</svg>
